X: 4146
M: C|
L: 1/8
K: Am
|:\
e>A A/A/A (ed)Bd | e>A A/A/A (dB)GB |\
e>A A/A/A (e^f)ga | gegd BGdB ::\
[1 A/A/A e2 A/A/A a2 | gegd BGdB :|\
[2 AcBd cedf | edcB A2a2 |]


